X:57
T:Bryce Denny
R:jig
C:Paul S. Cranford
O:Cape Breton Island
S:http://www.cranfordpub.com
D:currently unrecorded
B:Josepine Keegan's 2nd Collection
Z:psc, (re-formatted,updated 9/17/04)
N:
H:                                                        copyrights Cranford Publications, SOCAN
L:1/8
Q:300
M:6/8
K:D
f|aff fed|edB gfe|dAF Adf|edB gfg|
aff fed|edB gfe|dAd bag fdd d2:|
|:B|AFF dFF|EB,B, GAB|AGF daf|[1egf edB|
AFF dFF|EB,B, GAB|Adf bag fdd d2:|
[2egf efg|afa baf|eBe gfe|dAd bag fdd d2|]
